X:352
T:Donald of Dundee
S:Andrew Small
N:Bold
N:first part same as Willie's Gane to Melville Castle
M:2/4
L:1/8
Q:1/4=112
K:G
(g/a/)  |(bg) .g.e|(dB) .B.G|(B/c/).d/.e/ dg|a3(g/a/)|(bg) (ge)|(dB) (BG)| dg  a>b|g2 z
(g/a/)  |(bg) (ge)|(dB) (BG)|(B/c/).d/.e/ dg|a3(g/a/)|(bg) (ge)|(dB) (BG)|(dg) a>b|g3||
(g/a/)  |.b.b         (b>c')          |.a.a (a>b)|.g.g         g>a        |(f^d) BB    |\
          e>f          ga             |(b>g) ec' | bg          fb         | e3
(d'/c'/)|(bg)         (ge)            |(dB) (BG) |(B/c/).d/.e/ dg         | a(d' c'=c')|\
          b(c'/b/) ({b}a/)g/ ({g}f/e/)|(dB) (BG) | dg         (b/a/).g/.f/| g3        |]

